src/icons/svg/divider-vertical.svg

<svg width="20" height="20" fill="none" xmlns="http://www.w3.org/2000/svg"><path d="M9.75 3.463a.508.508 0 0 0-.299.312c-.045.109-.051.81-.051 6.234v6.11l.075.149a.584.584 0 0 0 1.05 0l.075-.149-.001-6.118c0-5.865-.003-6.123-.062-6.251a.508.508 0 0 0-.312-.299.557.557 0 0 0-.475.012" fill-rule="evenodd" fill="#000"/></svg>

<svg width="20" height="20" viewBox="0 0 20 20" fill="none" xmlns="http://www.w3.org/2000/svg"><path d="M9.750 3.463 C 9.591 3.536,9.520 3.610,9.451 3.775 C 9.406 3.884,9.400 4.585,9.400 10.009 L 9.400 16.119 9.475 16.268 C 9.696 16.705,10.304 16.705,10.525 16.268 L 10.600 16.119 10.599 10.001 C 10.599 4.136,10.596 3.878,10.537 3.750 C 10.464 3.591,10.390 3.520,10.225 3.451 C 10.064 3.384,9.914 3.388,9.750 3.463 " stroke="none" fill-rule="evenodd" fill="black"></path></svg>
